assets/icons/archiveBox.svg

<?xml version="1.0" encoding="UTF-8"?>
<svg width="22px" height="20px" viewBox="0 0 22 20" version="1.1" xmlns="http://www.w3.org/2000/svg" xmlns:xlink="http://www.w3.org/1999/xlink">
    <!-- Generator: Sketch 48.2 (47327) - http://www.bohemiancoding.com/sketch -->
    <title>icons/actions/close copy</title>
    <desc>Created with Sketch.</desc>
    <defs>
        <path d="M21,0 L1,0 C0.44771525,-3.46944695e-17 6.76353751e-17,0.44771525 0,1 L0,6 C6.76353751e-17,6.55228475 0.44771525,7 1,7 L2,7 L2,19 C2,19.5522847 2.44771525,20 3,20 L19,20 C19.5522847,20 20,19.5522847 20,19 L20,7 L21,7 C22.0598145,7 22,5.98168945 22,6 L22,1 C22,0.947265625 22.045166,0 21,0 Z M16.9589844,17.9821777 L5.05224609,17.9821777 C4.49996134,17.9821777 4.05224609,17.5344625 4.05224609,16.9821777 L4.05224609,7.16674805 L17.9589844,7.16674805 L17.9589844,16.9821777 C17.9589844,17.5344625 17.5112691,17.9821777 16.9589844,17.9821777 Z M20,5 L2,5 L2,2.05151367 L20,2.05151367 L20,5 Z M8,11 L14,11 C14.5522847,11 15,10.7015232 15,10.3333333 L15,9.66666667 C15,9.29847683 14.5522847,9 14,9 L8,9 C7.44771525,9 7,9.29847683 7,9.66666667 L7,10.3333333 C7,10.7015232 7.44771525,11 8,11 Z" id="path-1"></path>
    </defs>
    <g id="SDC-Archive-" stroke="none" stroke-width="1" fill="none" fill-rule="evenodd" transform="translate(-1272.000000, -126.000000)">
        <g id="Group-2" transform="translate(0.000000, 108.000000)">
            <g id="icons/heatfile-copy" transform="translate(1271.000000, 16.000000)">
                <g id="Page-1" transform="translate(2.000000, 2.000000)">
                    <g id="Group-3"></g>
                </g>
                <g id="Group" transform="translate(1.000000, 2.000000)">
                    <mask id="mask-2" fill="white">
                        <use xlink:href="#path-1"></use>
                    </mask>
                    <use id="Shape" fill="#5A5A5A" fill-rule="nonzero" xlink:href="#path-1"></use>
                    <g id="color/gray#5A5A5A" mask="url(#mask-2)" fill="#5A5A5A">
                        <g transform="translate(-1.000000, -1.000000)" id="Rectangle-3">
                            <rect x="0" y="0" width="30" height="30"></rect>
                        </g>
                    </g>
                </g>
            </g>
        </g>
    </g>
</svg>

<svg xmlns="http://www.w3.org/2000/svg" xmlns:xlink="http://www.w3.org/1999/xlink" viewBox="0 0 22 20">
  <defs>
    <style>
      .a {
        fill: #fff;
      }

      .b {
        mask: url(#a);
      }
    </style>
    <mask id="a" x="0" y="0" width="22" height="20" maskUnits="userSpaceOnUse">
      <g transform="translate(0 0)">
        <path class="a" d="M21,0H1A1,1,0,0,0,0,1V6A1,1,0,0,0,1,7H2V19a1,1,0,0,0,1,1H19a1,1,0,0,0,1-1V7h1a.94.94,0,0,0,1-1V1A.92.92,0,0,0,21,0ZM17,18H5.05a1,1,0,0,1-1-1V7.17H18V17A1,1,0,0,1,17,18ZM20,5H2V2.05H20ZM8,11h6c.55,0,1-.3,1-.67V9.67C15,9.3,14.55,9,14,9H8c-.55,0-1,.3-1,.67v.67C7,10.7,7.45,11,8,11Z"/>
      </g>
    </mask>
  </defs>
  <title>archive box</title>
  <g>
    <path d="M8,11h6c.55,0,1-.3,1-.67V9.67C15,9.3,14.55,9,14,9H8c-.55,0-1,.3-1,.67v.67C7,10.7,7.45,11,8,11Z" transform="translate(0 0)"/>
    <path d="M22,6V1a.92.92,0,0,0-1-1H1A1,1,0,0,0,0,1V6A1,1,0,0,0,1,7H2V19a1,1,0,0,0,1,1H19a1,1,0,0,0,1-1V7h1A.94.94,0,0,0,22,6ZM18,17a1,1,0,0,1-1,1H5.05a1,1,0,0,1-1-1V7.17H18ZM20,5H2V2.05H20Z" transform="translate(0 0)"/>
  </g>
</svg>
